contributed-vectors/aral.svg

<svg xmlns="http://www.w3.org/2000/svg" xml:space="preserve" viewBox="0 0 192 192"><font horiz-adv-x="1000"><font-face font-family="BloggerSans-Bold" underline-position="-143" underline-thickness="20"/><glyph d="M186 139h213l35-101c10-28 42-47 68-47 41 0 72 26 72 64 0 5-1 17-3 22L376 646c-14 40-34 68-82 68s-68-29-81-68L18 77c-2-5-3-17-3-22C15 17 48-9 87-9c24 0 56 18 66 47m210 215H223l53 171c9 29 14 67 18 98 4-31 9-69 18-98z" horiz-adv-x="589" unicode="A"/><glyph d="M488 64c0 35-32 62-68 62H203v524c0 34-32 64-70 64-39 0-70-30-70-64V69c0-39 35-69 75-69h282c38 0 68 28 68 64z" horiz-adv-x="503" unicode="L"/><glyph d="M561 493c0 105-60 212-248 212H139c-41 0-76-33-76-72V57c0-36 32-66 69-66 38 0 71 31 71 66v229h68L439 23c13-20 34-31 59-31 45 0 94 53 61 103L422 301c86 28 139 93 139 192m-140 0c0-52-37-81-106-81H203v166h106c91 0 112-43 112-85z" horiz-adv-x="615" unicode="R"/></font><rect width="152" height="152" x="20" y="20" fill="#8cbdff" rx="10" ry="10" style="stroke-width:.791667"/><rect width="68.538" height="68.538" x="-34.269" y="101.496" fill="#8dbcff" stroke="#fff" stroke-miterlimit="10" stroke-width="2.375" rx="1" style="fill:#708cbd;fill-opacity:1;stroke:#fff;stroke-width:3.93167;stroke-dasharray:none;stroke-opacity:1" transform="rotate(-45)"/><text x="61.558" y="105.456" fill="#fff" font-family="BloggerSans-Bold" font-size="26.392" style="font-style:normal;font-variant:normal;font-weight:700;font-stretch:normal;font-family:now;-inkscape-font-specification:&quot;now Bold&quot;;fill:#fff;fill-opacity:1;stroke-width:.575418" transform="scale(1.0025 .9975)">ARAL</text><path fill="#8cbdff" d="M-3.347-379.365h192v192h-192z"/><path fill="#8dbcff" stroke="#fff" stroke-miterlimit="10" stroke-width="3" d="M15.128-282.669 92.98-360.52l77.851 77.852-77.851 77.852z"/><text x="39.154" y="-270.012" fill="#fff" font-family="BloggerSans-Bold" font-size="45.981" style="stroke-width:1.0025" transform="scale(1.0025 .9975)">ARAL</text></svg>

<?xml version="1.0" encoding="UTF-8" standalone="no"?>
<!-- Generator: Adobe Illustrator 17.1.0, SVG Export Plug-In . SVG Version: 6.00 Build 0)  -->

<svg
   version="1.1"
   id="Слой_1"
   x="0px"
   y="0px"
   viewBox="0 0 192 192"
   enable-background="new 0 0 192 192"
   xml:space="preserve"
   sodipodi:docname="aral.svg"
   inkscape:version="1.2 (dc2aedaf03, 2022-05-15)"
   xmlns:inkscape="http://www.inkscape.org/namespaces/inkscape"
   xmlns:sodipodi="http://sodipodi.sourceforge.net/DTD/sodipodi-0.dtd"
   xmlns="http://www.w3.org/2000/svg"
   xmlns:svg="http://www.w3.org/2000/svg"><defs
   id="defs23757" /><sodipodi:namedview
   id="namedview23755"
   pagecolor="#505050"
   bordercolor="#eeeeee"
   borderopacity="1"
   inkscape:showpageshadow="0"
   inkscape:pageopacity="0"
   inkscape:pagecheckerboard="0"
   inkscape:deskcolor="#505050"
   showgrid="false"
   inkscape:zoom="1.2291667"
   inkscape:cx="-64.271186"
   inkscape:cy="165.15254"
   inkscape:window-width="1884"
   inkscape:window-height="1052"
   inkscape:window-x="36"
   inkscape:window-y="0"
   inkscape:window-maximized="1"
   inkscape:current-layer="Слой_1" />
<font
   horiz-adv-x="1000"
   id="font23744">
<!-- &#xA9; 2014 Sergiy S. Tkachenko / 4th february
&#xA9; 2014 FirstSiteGuide.com
http://creativecommons.org/licenses/by-nd/4.0/ -->
<!-- Copyright: Copyright 2018 Adobe System Incorporated. All rights reserved. -->
<font-face
   font-family="BloggerSans-Bold"
   units-per-em="1000"
   underline-position="-143"
   underline-thickness="20"
   id="font-face23734" />
<missing-glyph
   horiz-adv-x="760"
   id="missing-glyph23736" />
<glyph
   unicode="A"
   horiz-adv-x="589"
   d="M186,139l213,0l35,-101C444,10 476,-9 502,-9C543,-9 574,17 574,55C574,60 573,72 571,77l-195,569C362,686 342,714 294,714C246,714 226,685 213,646l-195,-569C16,72 15,60 15,55C15,17 48,-9 87,-9C111,-9 143,9 153,38M363,253l-140,0l53,171C285,453 290,491 294,522C298,491 303,453 312,424z"
   id="glyph23738" />
<glyph
   unicode="L"
   horiz-adv-x="503"
   d="M488,64C488,99 456,126 420,126l-217,0l0,524C203,684 171,714 133,714C94,714 63,684 63,650l0,-581C63,30 98,0 138,0l282,0C458,0 488,28 488,64z"
   id="glyph23740" />
<glyph
   unicode="R"
   horiz-adv-x="615"
   d="M561,493C561,598 501,705 313,705l-174,0C98,705 63,672 63,633l0,-576C63,21 95,-9 132,-9C170,-9 203,22 203,57l0,229l68,0l168,-263C452,3 473,-8 498,-8C543,-8 592,45 559,95l-137,206C508,329 561,394 561,493M421,493C421,441 384,412 315,412l-112,0l0,166l106,0C400,578 421,535 421,493z"
   id="glyph23742" />
</font>

	


<rect
   x="20"
   y="20"
   fill="#8cbdff"
   width="152"
   height="152"
   id="rect23748"
   style="stroke-width:0.791667"
   rx="10"
   ry="10" />
<rect
   x="-34.268963"
   y="101.49554"
   transform="rotate(-45)"
   fill="#8dbcff"
   stroke="#ffffff"
   stroke-width="2.37498"
   stroke-miterlimit="10"
   width="68.537926"
   height="68.537926"
   id="rect26979"
   style="fill:#708cbd;fill-opacity:1;stroke:#ffffff;stroke-width:3.93167;stroke-dasharray:none;stroke-opacity:1"
   rx="0.99979275" /><text
   fill="#ffffff"
   font-family="BloggerSans-Bold"
   font-size="26.3921px"
   id="text26981"
   x="61.557823"
   y="105.45591"
   style="font-style:normal;font-variant:normal;font-weight:bold;font-stretch:normal;font-family:now;-inkscape-font-specification:'now Bold';fill:#ffffff;fill-opacity:1;stroke-width:0.575418"
   transform="scale(1.0024969,0.99750934)">ARAL</text><rect
   x="-3.3474431"
   y="-379.36484"
   fill="#8cbdff"
   width="192"
   height="192"
   id="rect27069" /><rect
   x="210.57355"
   y="-189.18048"
   transform="rotate(-45)"
   fill="#8dbcff"
   stroke="#ffffff"
   stroke-width="2.99997"
   stroke-miterlimit="10"
   width="110.09895"
   height="110.09895"
   id="rect27071" /><text
   transform="scale(1.0024969,0.99750934)"
   fill="#ffffff"
   font-family="BloggerSans-Bold"
   font-size="45.9806px"
   id="text27073"
   x="39.153694"
   y="-270.01245"
   style="stroke-width:1.0025">ARAL</text></svg>
